!!!OTL: ALS SCHONDILG NOCH EIN KLEIN KIND WAR
!!!ARE: Europa, Mitteleuropa, Deutschland, Niederrhein
!!!SCT: E0041A
!!!YEM: Copyright 1995, estate of Helmut Schaffrath.
**kern
*ICvox
*Ivox
*M3/4
*k[f#]
*e:
{8dn
8gn
8a
=1
4.b
8ccn
8b
8a
=2
4.gn}
{8dn
8gn
8a
=3
4.b
8ccn
8b
8a
=4
4.gn}
{8f#
8e
8f#
=5
4gn
8a
8b
8gn
8f#
=6
4.e}
{8f#
8e
8f#
=7
4gn
8a
8b
8gn
8f#
=8
4.e}
==
!!!AGN: erzaehlendes Volks - Lied, Ritter -, Raeuber - Sage, Ballade ?
!!!ONB: ESAC (Essen Associative Code) Database: ERK1
!!!AMT: simple triple
!!!AIN: vox
!!!EED: Helmut Schaffrath
!!!EEV: 1.0
*-
